assets/images/Telegram_logo.svg

<svg height="184" viewBox="0 0 184 184" width="184" xmlns="http://www.w3.org/2000/svg" xmlns:xlink="http://www.w3.org/1999/xlink"><linearGradient id="a" x1="66.67%" x2="41.67%" y1="16.67%" y2="75%"><stop offset="0" stop-color="#37aee2"/><stop offset="1" stop-color="#1e96c8"/></linearGradient><linearGradient id="b" x1="61.234676%" x2="74.706438%" y1="43.69%" y2="80.24%"><stop offset="0" stop-color="#eff7fc"/><stop offset="1" stop-color="#fff"/></linearGradient><g fill="none" transform=""><circle cx="92" cy="92" fill="url(#a)" r="92"/><path d="m75.1333333 134.166667c-2.9804933 0-2.4740333-1.12539-3.50198-3.963284l-8.7646866-28.845526 67.4666663-40.0245237" fill="#c8daea"/><path d="m75.1333333 134.166667c2.3 0 3.3162167-1.051867 4.6-2.3l12.2666667-11.9278-15.3011333-9.226834" fill="#a9c9dd"/><path d="m76.6973333 110.714333 37.0759997 27.392234c4.23085 2.334423 7.284407 1.125773 8.338267-3.928017l15.091833-71.1183c1.54514-6.19482-2.36141-9.0045-6.408873-7.1669533l-88.619 34.1711c-6.0490767 2.42627-6.01381 5.80106-1.10262 7.3048l22.7416333 7.0980303 52.6492997-33.2158337c2.485457-1.50719 4.766597-.6968923 2.89432.9647734" fill="url(#b)"/></g></svg>

<?xml version="1.0" encoding="UTF-8"?>
<svg width="184px" height="184px" viewBox="0 0 184 184" version="1.1" xmlns="http://www.w3.org/2000/svg" xmlns:xlink="http://www.w3.org/1999/xlink">
    <!-- Generator: Sketch 50 (54983) - http://www.bohemiancoding.com/sketch -->
    <title>Telegram_logo</title>
    <desc>Created with Sketch.</desc>
    <defs>
        <linearGradient x1="66.67%" y1="16.67%" x2="41.67%" y2="75%" id="linearGradient-1">
            <stop stop-color="#37AEE2" offset="0%"></stop>
            <stop stop-color="#1E96C8" offset="100%"></stop>
        </linearGradient>
        <linearGradient x1="61.2346759%" y1="43.69%" x2="74.7064382%" y2="80.24%" id="linearGradient-2">
            <stop stop-color="#EFF7FC" offset="0%"></stop>
            <stop stop-color="#FFFFFF" offset="100%"></stop>
        </linearGradient>
    </defs>
    <g id="Page-1" stroke="none" stroke-width="1" fill="none" fill-rule="evenodd">
        <g id="Website-1-Copy" transform="translate(-129.000000, -7000.000000)" fill-rule="nonzero">
            <g id="telegram-cta" transform="translate(129.000000, 6992.000000)">
                <g id="Telegram_logo" transform="translate(0.000000, 8.000000)">
                    <circle id="Oval" fill="url(#linearGradient-1)" cx="92" cy="92" r="92"></circle>
                    <path d="M75.1333333,134.166667 C72.15284,134.166667 72.6593,133.041277 71.6313533,130.203383 L62.8666667,101.357857 L130.333333,61.3333333" id="Shape" fill="#C8DAEA"></path>
                    <path d="M75.1333333,134.166667 C77.4333333,134.166667 78.44955,133.1148 79.7333333,131.866667 L92,119.938867 L76.6988667,110.712033" id="Shape" fill="#A9C9DD"></path>
                    <path d="M76.6973333,110.714333 L113.773333,138.106567 C118.004183,140.44099 121.05774,139.23234 122.1116,134.17855 L137.203433,63.06025 C138.748573,56.86543 134.842023,54.05575 130.79456,55.8932967 L42.17556,90.0643967 C36.1264833,92.4906667 36.16175,95.8654567 41.07294,97.3691967 L63.8145733,104.467227 L116.463873,71.2513933 C118.94933,69.7442033 121.23047,70.554501 119.358193,72.2161667" id="Shape" fill="url(#linearGradient-2)"></path>
                </g>
            </g>
        </g>
    </g>
</svg>
